X: 130273
T: Maracaibo (The)
C: Johnny Harling
Z: B.Black
R: reel
M: 4/4
L: 1/8
K: G
B/d/ | e3 d efge | aged B3 G | E3 F G3 A |\
BedB A2 (3Bcd |
e3 d efge | aged B3 G | E3 F GBdB | AGED E3 :|
F | D3 E FGAF | GFED EFGA | Be e2 fd d2 |\
gfed e3 d |
B3 A GBdB | A3 G FADA | EB B2 GBdB | AGED E3 :|
